svg/device/home_wifi_fill.svg

<?xml version="1.0" encoding="UTF-8"?>
<svg width="24px" height="24px" viewBox="0 0 24 24" version="1.1" xmlns="http://www.w3.org/2000/svg" xmlns:xlink="http://www.w3.org/1999/xlink">
    <title>home_wifi_fill</title>
    <g id="Icon" stroke="none" stroke-width="1" fill="none" fill-rule="evenodd">
        <g id="Device" transform="translate(-240.000000, -432.000000)">
            <g id="home_wifi_fill" transform="translate(240.000000, 432.000000)">
                <path d="M24,0 L24,24 L0,24 L0,0 L24,0 Z M12.5935,23.2578 L12.5819,23.2595 L12.5109,23.295 L12.4919,23.2987 L12.4767,23.295 L12.4057,23.2595 C12.3958,23.2564 12.387,23.259 12.3821,23.2649 L12.378,23.2758 L12.3609,23.7031 L12.3659,23.7235 L12.3769,23.7357 L12.4805,23.8097 L12.4953,23.8136 L12.5071,23.8097 L12.6107,23.7357 L12.6233,23.7197 L12.6267,23.7031 L12.6096,23.2758 C12.6076,23.2657 12.601,23.2593 12.5935,23.2578 Z M12.8584,23.1453 L12.8445,23.1473 L12.6598,23.2397 L12.6499,23.2499 L12.6472,23.2611 L12.6651,23.6906 L12.6699,23.7034 L12.6784,23.7105 L12.8793,23.8032 C12.8914,23.8069 12.9022,23.803 12.9078,23.7952 L12.9118,23.7812 L12.8777,23.1665 C12.8753,23.1546 12.8674,23.147 12.8584,23.1453 Z M12.143,23.1473 C12.1332,23.1424 12.1222,23.1453 12.1156,23.1526 L12.1099,23.1665 L12.0758,23.7812 C12.0751,23.7927 12.0828,23.8019 12.0926,23.8046 L12.1083,23.8032 L12.3092,23.7105 L12.3186,23.7024 L12.3225,23.6906 L12.3404,23.2611 L12.3372,23.2485 L12.3278,23.2397 L12.143,23.1473 Z" id="MingCute" fill-rule="nonzero"></path>
                <path d="M13.2,2.65 L20.2,7.9 C20.7036,8.27771 21,8.87049 21,9.5 L21,19 C21,20.1046 20.1046,21 19,21 L5,21 C3.89543,21 3,20.1046 3,19 L3,9.5 C3,8.87049 3.29639,8.27771 3.8,7.9 L10.8,2.65 C11.5111,2.11667 12.4889,2.11667 13.2,2.65 Z M12,15 C11.4477,15 11,15.4477 11,16 C11,16.5523 11.4477,17 12,17 C12.5523,17 13,16.5523 13,16 C13,15.4477 12.5523,15 12,15 Z M12,12 C10.9919,12 10.0687,12.3742 9.36565,12.9899 C8.95016,13.3538 8.9083,13.9856 9.27215,14.401 C9.636,14.8165 10.2678,14.8584 10.6833,14.4946 C11.0357,14.186 11.4949,14 12,14 C12.5051,14 12.9643,14.186 13.3167,14.4946 C13.7322,14.8584 14.364,14.8165 14.7279,14.401 C15.0917,13.9856 15.0498,13.3538 14.6343,12.9899 C13.9313,12.3742 13.0081,12 12,12 Z M12,9 C10.2353,9 8.62094,9.65432 7.39011,10.7322 C6.97462,11.096 6.93276,11.7278 7.29661,12.1433 C7.66046,12.5588 8.29224,12.6006 8.70773,12.2368 C9.58787,11.466 10.7383,11 12,11 C13.2617,11 14.4121,11.466 15.2923,12.2368 C15.7078,12.6006 16.3395,12.5588 16.7034,12.1433 C17.0672,11.7278 17.0254,11.096 16.6099,10.7322 C15.3791,9.65432 13.7647,9 12,9 Z" id="形状" fill="#09244B"></path>
            </g>
        </g>
    </g>
</svg>

<svg xmlns="http://www.w3.org/2000/svg" width="24" height="24"><g fill="none" fill-rule="evenodd"><path d="M24 0v24H0V0h24ZM12.594 23.258l-.012.002-.071.035-.02.004-.014-.004-.071-.036c-.01-.003-.019 0-.024.006l-.004.01-.017.428.005.02.01.013.104.074.015.004.012-.004.104-.074.012-.016.004-.017-.017-.427c-.002-.01-.009-.017-.016-.018Zm.264-.113-.014.002-.184.093-.01.01-.003.011.018.43.005.012.008.008.201.092c.012.004.023 0 .029-.008l.004-.014-.034-.614c-.003-.012-.01-.02-.02-.022Zm-.715.002a.023.023 0 0 0-.027.006l-.006.014-.034.614c0 .012.007.02.017.024l.015-.002.201-.093.01-.008.003-.011.018-.43-.003-.012-.01-.01-.184-.092Z"/><path fill="#09244B" d="m13.2 2.65 7 5.25a2 2 0 0 1 .8 1.6V19a2 2 0 0 1-2 2H5a2 2 0 0 1-2-2V9.5a2 2 0 0 1 .8-1.6l7-5.25a2 2 0 0 1 2.4 0ZM12 15a1 1 0 1 0 0 2 1 1 0 0 0 0-2Zm0-3a3.988 3.988 0 0 0-2.634.99 1 1 0 0 0 1.317 1.505A1.989 1.989 0 0 1 12 14c.505 0 .964.186 1.317.495a1 1 0 0 0 1.317-1.505A3.988 3.988 0 0 0 12 12Zm0-3c-1.765 0-3.38.654-4.61 1.732a1 1 0 1 0 1.318 1.505A4.977 4.977 0 0 1 12 11c1.262 0 2.412.466 3.292 1.237a1 1 0 0 0 1.318-1.505A6.977 6.977 0 0 0 12 9Z"/></g></svg>
